X:1
T:Merro ffeff Duo 30
T:Merro ffeff Duo 30
T:Pages 163 - 165 in Book 1 / Pages 188 - 190 in Book 2
T:Almain
%%score { 1 | 2 } { 3 | 4 }
L:1/8
Q:1/4=60
M:4/4
K:C
V:1 bass nm="Viola da gamba" snm="Vla. d. g."
V:2 tab stafflines=6 strings=D2,G2,C3,E3,A3,D4 nostems 
V:3 bass nm="Viola da gamba" snm="Vla. d. g."
V:4 tab stafflines=6 strings=D2,G2,C3,E3,A3,D4 nostems 
V:1
 D,2 D,D, C,2 [A,,C,]2 | [B,,D,]2 C,2 [D,F,A,]2 A,A, | G,2 E,2 [D,F,]2 D,D, | %3
 C,2 A,,2 [B,,D,G,]2 [C,G,]G, | [D,F,]2 F,2 [A,,C,E,]2 A,2 | [DD]2 DD C2 A,2 | B,2 ^C2 D2 [G,B,]2 | %7
 A,2 DD [A,D]2 ^C2 | [D,^F,A,D]2 D,2 C,_B,,A,,G,, | F,,2 F,2 E,D,C,B,, | [A,,C,E,]2 A,2 G,F,E,D, | %11
 [C,G,]2 [D,F,]2 [A,,^C,E,]2 A,2 | [D,,A,,D,^F,]6 F,2 :: A,4 [G,,D,G,]4 | %14
 [A,,C,F,A,]2 C2 _B,2 D,2 | A,2 [A,,C,E,]2 [D,F,]2 D2 | [E,B,D]2 C4 [E,B,]2 | %17
 [A,,^C,E,A,]2 A,4 [G,B,]F, | [E,CE]2 [F,A,D]C [G,B,]2 [E,^C]2 | [D,F,A,D]2 F4 [A,E]D | %20
 [A,C]2 G,F, E,2 F,2 | [G,,D,G,B,]2 B,[B,D] A,2 G,2 | [A,D]2 CB, A,2 B,2 | [A,C]2 B,2 A,2 G,F, | %24
 [E,A,]2 [D,G,]F, E,3 D, | [A,A,]6 [E,A,]2 | [D,^F,A,]2 D,2 C,_B,,A,,G,, | %27
 [F,,A,,C,F,]G, A,2 [G,,D,G,]F,E,D, | [A,,^C,G,]2 [D,F,]G, [A,,D,E,A,]3 C, | %29
 [D,,A,,D,]6 [D,,A,,D,]2 :| %30
V:2
 !4!D,2 !4!D, !4!D, !4!C,2 [!5!A,,!4!C,]2 | [!5!B,,!4!D,]2 !4!C,2 [!4!D,!3!F,!2!A,]2 !2!A, !2!A, | %2
 !3!G,2 !3!E,2 [!4!D,!3!F,]2 !4!D, !4!D, | !4!C,2 !5!A,,2 [!5!B,,!4!D,!3!G,]2 [!4!C,!3!G,] !3!G, | %4
 [!4!D,!3!F,]2 !3!F,2 [!5!A,,!4!C,!3!E,]2 !2!A,2 | [!2!D!1!D]2 !1!D !1!D !2!C2 !2!A,2 | %6
 !2!B,2 !2!^C2 !1!D2 [!3!G,!2!B,]2 | !3!A,2 !2!D !2!D [!3!A,!2!D]2 !2!^C2 | %8
 [!4!D,!3!^F,!2!A,!1!D]2 !4!D,2 !4!C, !5!_B,, !5!A,, !5!G,, | %9
 !6!F,,2 !3!F,2 !3!E, !4!D, !4!C, !5!B,, | [!5!A,,!4!C,!3!E,]2 !2!A,2 !3!G, !3!F, !3!E, !4!D, | %11
 [!4!C,!3!G,]2 [!4!D,!3!F,]2 [!5!A,,!4!^C,!3!E,]2 !2!A,2 | [!6!D,,!5!A,,!4!D,!3!^F,]6 !3!F,2 :: %13
 !2!A,4 [!5!G,,!4!D,!3!G,]4 | %14
"_* originally \"a\"" [!5!A,,!4!C,!3!F,!2!A,]2"^*" !2!C2 !2!_B,2 !4!D,2 | %15
 !2!A,2 [!5!A,,!4!C,!3!E,]2 [!4!D,!3!F,]2 !1!D2 | [!3!E,!2!B,!1!D]2 !2!C4 [!3!E,!2!B,]2 | %17
 [!5!A,,!4!^C,!3!E,!2!A,]2 !2!A,4 [!3!G,!2!B,] !3!F, | %18
 [!3!E,!2!C!1!E]2 [!3!F,!2!A,!1!D] !2!C [!3!G,!2!B,]2 [!3!E,!2!^C]2 | %19
 [!4!D,!3!F,!2!A,!1!D]2 !1!F4 [!2!A,!1!E] !1!D | [!3!A,!2!C]2 !3!G, !3!F, !3!E,2 !3!F,2 | %21
 [!5!G,,!4!D,!3!G,!2!B,]2 !2!B, [!2!B,!1!D] !2!A,2 !3!G,2 | [!2!A,!1!D]2 !2!C !2!B, !2!A,2 !2!B,2 | %23
 [!3!A,!2!C]2 !2!B,2 !2!A,2 !3!G, !3!F, | [!3!E,!2!A,]2 [!4!D,!3!G,] !3!F, !3!E,3 !4!D, | %25
 [!3!A,!2!A,]6 [!3!E,!2!A,]2 | [!4!D,!3!^F,!2!A,]2 !4!D,2 !4!C, !5!_B,, !5!A,, !5!G,, | %27
 [!6!F,,!5!A,,!4!C,!3!F,] !3!G, !2!A,2 [!5!G,,!4!D,!3!G,] !3!F, !3!E, !4!D, | %28
 [!5!A,,!4!^C,!3!G,]2 [!4!D,!3!F,] !3!G, [!5!A,,!4!D,!3!E,!2!A,]3 !4!C, | %29
 [!6!D,,!5!A,,!4!D,]6 [!6!D,,!5!A,,!4!D,]2 :| %30
V:3
 F,2 F,F, [E,A,]2 A,A, | G,2 E,2 F,2 F,2 | E,2 [A,,C,E,A,]2 A,G,A,B, | [A,C]2 A,A, G,2 E,2 | %4
 [D,F,A,D]2 DD C2 [C,E,A,]2 | [B,,D,]2 ^G,2 [A,,C,E,A,]2 F,2 | [E,G,]3 E, [D,^F,A,]2 [G,,D,G,]2 | %7
 [A,,^C,G,]2 F,2 [A,,C,E,]2 A,2 | [D,,A,,D,^F,]2 _B,2 [E,G,]2 C=B, | %9
 [F,A,]G, A,2 [G,B,]F,[E,A,]D, | [E,C]2 C2 [B,D]A,G,F, | [E,CE]2 [A,D]2 [A,D]G, [E,^C]2 | %12
 [D,^F,A,D]6 [A,D]2 :: [CE]4 [B,G]2 B,,2 | [A,F]4 E2 D2 | [D,F,]2 C2 B,2 A,2 | ^G,2 [A,A,]4 G,2 | %17
 [A,A,]6 G2 | G2 FE D2 E2 | F2 D4 CB, | [A,,C,E,A,]2 B,2 [A,,C,E,C]2 A,2 | G,6 F,E, | %22
 [D,F,]6 [C,E,][B,,D,] | [A,,C,]6 [G,,E,]D, | [A,,^C,E,A,]6 G,F, | [A,,^C,E,]2 D,2 [A,,D,E,]2 C,2 | %26
 [D,,A,,D,]2 [D,F,]2 [E,G,]2 A,2 | A,B, [F,C]2 _B,A,G,F, | [E,A,]3 B, CB,A,G, | %29
 ^F,2 D2 [D,F,A,D]4 :| %30
V:4
 !3!F,2 !3!F, !3!F, [!3!E,!2!A,]2 !2!A, !2!A, | !3!G,2 !3!E,2 !3!F,2 !3!F,2 | %2
 !3!E,2 [!5!A,,!4!C,!3!E,!2!A,]2 !2!A, !3!G, !2!A, !2!B, | [!3!A,!2!C]2 !3!A, !3!A, !3!G,2 !3!E,2 | %4
 [!4!D,!3!F,!2!A,!1!D]2 !1!D !1!D !2!C2 [!4!C,!3!E,!2!A,]2 | %5
 [!5!B,,!4!D,]2 !3!^G,2 [!5!A,,!4!C,!3!E,!2!A,]2 !3!F,2 | %6
 [!4!E,!3!G,]3 !4!E, [!4!D,!3!^F,!2!A,]2 [!5!G,,!4!D,!3!G,]2 | %7
 [!5!A,,!4!^C,!3!G,]2 !3!F,2 [!5!A,,!4!C,!3!E,]2 !2!A,2 | %8
 [!6!D,,!5!A,,!4!D,!3!^F,]2 !2!_B,2 [!4!E,!3!G,]2 !2!C !2!=B, | %9
 [!3!F,!2!A,] !3!G, !2!A,2 [!3!G,!2!B,] !3!F, [!3!E,!2!A,] !4!D, | %10
 [!3!E,!2!C]2 !2!C2 [!2!B,!1!D] !2!A, !3!G, !3!F, | %11
 [!3!E,!2!C!1!E]2 [!2!A,!1!D]2 [!2!A,!1!D] !3!G, [!3!E,!2!^C]2 | %12
 [!4!D,!3!^F,!2!A,!1!D]6 [!2!A,!1!D]2 :: [!2!C!1!E]4 [!2!B,!1!G]2 !5!B,,2 | %14
 [!2!A,!1!F]4 !1!E2 !1!D2 | [!4!D,!3!F,]2 !2!C2 !2!B,2 !2!A,2 | !3!^G,2 [!2!A,!3!A,]4 !3!G,2 | %17
 [!2!A,!3!A,]6 !1!G2 | !1!G2 !1!F !1!E !1!D2 !1!E2 | !1!F2 !1!D4 !2!C !2!B, | %20
 [!5!A,,!4!C,!3!E,!2!A,]2 !2!B,2 [!5!A,,!4!C,!3!E,!2!C]2 !2!A,2 | !3!G,6 !3!F, !3!E, | %22
 [!4!D,!3!F,]6 [!4!C,!3!E,] [!5!B,,!4!D,] | [!5!A,,!4!C,]6 [!5!G,,!4!E,] !4!D, | %24
 [!5!A,,!4!^C,!3!E,!2!A,]6 !3!G, !3!F, | [!5!A,,!4!^C,!3!E,]2 !4!D,2 [!5!A,,!4!D,!3!E,]2 !4!C,2 | %26
 [!6!D,,!5!A,,!4!D,]2 [!4!D,!3!F,]2 [!4!E,!3!G,]2 !2!A,2 | %27
 !2!A, !2!B, [!3!F,!2!C]2 !2!_B, !2!A, !3!G, !3!F, | [!3!E,!2!A,]3 !2!B, !2!C !2!B, !2!A, !3!G, | %29
 !3!^F,2 !1!D2 [!4!D,!3!F,!2!A,!1!D]4 :| %30

